Newaita/actions/16/view-left-close.svg

<svg height="16" viewBox="0 0 16 16" width="16" xmlns="http://www.w3.org/2000/svg"><path d="m5.621094 11.703125h-3.96875c-.179688 0-.328125.148437-.328125.328125v.664062c0 .179688.148437.328126.328125.328126h3.96875c.183594 0 .332031-.148438.332031-.328126v-.664062c0-.179688-.148437-.328125-.332031-.328125zm0 0" fill="#f44336"/><path d="m13.230469 1.449219c.734375 0 1.324219.589843 1.324219 1.320312v10.585938c0 .734375-.589844 1.324219-1.324219 1.324219h-5.953125v-1.324219h2.644531v-10.585938h-6.613281c-.367188 0-.664063.296875-.664063.664063v5.292968h-1.320312v-5.957031c0-.730469.589843-1.320312 1.320312-1.320312zm-.660157 1.320312h-1.984374v10.585938h1.984374c.363282 0 .660157-.296875.660157-.660157v-9.261718c0-.367188-.296875-.664063-.660157-.664063zm0 0" fill="#424242"/></svg>

<svg xmlns="http://www.w3.org/2000/svg" xmlns:xlink="http://www.w3.org/1999/xlink" width="16px" height="16px" viewBox="0 0 16 16" version="1.1">
<g id="surface1">
<path style=" stroke:none;fill-rule:nonzero;fill:rgb(95.686275%,26.274511%,21.176471%);fill-opacity:1;" d="M 5.621094 11.703125 L 1.652344 11.703125 C 1.472656 11.703125 1.324219 11.851562 1.324219 12.03125 L 1.324219 12.695312 C 1.324219 12.875 1.472656 13.023438 1.652344 13.023438 L 5.621094 13.023438 C 5.804688 13.023438 5.953125 12.875 5.953125 12.695312 L 5.953125 12.03125 C 5.953125 11.851562 5.804688 11.703125 5.621094 11.703125 Z M 5.621094 11.703125 "/>
     <defs>
  <style id="current-color-scheme" type="text/css">
   .ColorScheme-Text { color:#424242; } .ColorScheme-Highlight { color:#eeeeee; }
  </style>
 </defs>
<path style="fill:currentColor" class="ColorScheme-Text" d="M 13.230469 1.449219 C 13.964844 1.449219 14.554688 2.039062 14.554688 2.769531 L 14.554688 13.355469 C 14.554688 14.089844 13.964844 14.679688 13.230469 14.679688 L 7.277344 14.679688 L 7.277344 13.355469 L 9.921875 13.355469 L 9.921875 2.769531 L 3.308594 2.769531 C 2.941406 2.769531 2.644531 3.066406 2.644531 3.433594 L 2.644531 8.726562 L 1.324219 8.726562 L 1.324219 2.769531 C 1.324219 2.039062 1.914062 1.449219 2.644531 1.449219 Z M 12.570312 2.769531 L 10.585938 2.769531 L 10.585938 13.355469 L 12.570312 13.355469 C 12.933594 13.355469 13.230469 13.058594 13.230469 12.695312 L 13.230469 3.433594 C 13.230469 3.066406 12.933594 2.769531 12.570312 2.769531 Z M 12.570312 2.769531 "/>
</g>
</svg>
